X:52
T:John Gilpin. THO5.052
M:6/8
L:1/8
B:Thompson's Complete Collection of 200 Favourite Dances Vol.5
F:https://www.libraryofdance.org/manuals/1780c-Thompson-Compleat-5.pdf
Z:vmp. Peter Dunk 2024
Q:3/8=110
K:D
a|aga fga|b2g efg|a2d c2d|ecA A2a|
aga fga|b2g efg|a2d edc|ddd d2:|
|:e|ede cde|f2f def|gag fad|ecA A2e|
ede cde|fef def|g2e c2e|ddd d2:|
W:
W:Right hands across left hands, back again ./.
W:Change sides and back again ./:
W:Lead down the middle, up again and cast off :/.
W:Right and Left :/:

